Newaita-dark/mimetypes/48/application-x-firmware.svg

<svg height="48pt" viewBox="0 0 48 48" width="48pt" xmlns="http://www.w3.org/2000/svg" xmlns:xlink="http://www.w3.org/1999/xlink"><linearGradient id="a"><stop offset="0" stop-opacity=".27451"/><stop offset="1" stop-opacity="0"/></linearGradient><linearGradient id="b" gradientUnits="userSpaceOnUse" x1="24.807067" x2="24.807067" xlink:href="#a" y1="42.0509035" y2="44.03546931253"/><linearGradient id="c"><stop offset="0" stop-opacity=".313725"/><stop offset=".222222" stop-opacity=".27451"/><stop offset="1" stop-opacity="0"/></linearGradient><radialGradient id="d" cx="450.90894" cy="189.57936" gradientTransform="matrix(.00000026 -.117199 -.210958 -.00000015 74.226852 95.393002)" gradientUnits="userSpaceOnUse" r="21.166656" xlink:href="#c"/><radialGradient id="e" cx="450.90894" cy="189.57936" gradientTransform="matrix(-.00000026 .117199 .210958 .00000015 -27.589578 -11.291218)" gradientUnits="userSpaceOnUse" r="21.166656" xlink:href="#c"/><radialGradient id="f" cx="450.90894" cy="189.57936" gradientTransform="matrix(-.00000026 -.117199 .210958 -.00000015 -27.589578 95.393002)" gradientUnits="userSpaceOnUse" r="21.166656" xlink:href="#c"/><radialGradient id="g" cx="450.90894" cy="189.57936" gradientTransform="matrix(.00000026 .117199 -.210958 .00000015 74.22685 -11.291219)" gradientUnits="userSpaceOnUse" r="21.166656" xlink:href="#c"/><linearGradient id="h" gradientUnits="userSpaceOnUse" x1="23.318674" x2="23.318674" y1="42.05096669922" y2="4.34417271465"><stop offset="0" stop-color="#a5d6a7"/><stop offset="1" stop-color="#c8e6c9"/></linearGradient><linearGradient id="i" gradientTransform="matrix(.0448412 0 0 .164078 22.563634 -24.789434)" gradientUnits="userSpaceOnUse" x1="249.18942" x2="249.18942" xlink:href="#a" y1="233.5" y2="254.66669"/><linearGradient id="j"><stop offset="0" stop-color="#66bb6a"/><stop offset="1" stop-color="#81c784"/></linearGradient><linearGradient id="k" gradientUnits="userSpaceOnUse" x1="31.75304737494" x2="31.75304737494" xlink:href="#j" y1="42.0509015" y2="4.34415668747"/><linearGradient id="l" gradientUnits="userSpaceOnUse" x1="940" x2="940" xlink:href="#j" y1="1695.1182" y2="175.11812"/><path d="m11.90625 42.050781h22.824219v1.984375h-22.824219zm0 0" fill="url(#b)"/><path d="m34.730469 42.050781h3.96875v-1.984375h-3.96875zm0 0" fill="url(#d)"/><path d="m11.90625 42.050781h-3.96875v1.984375h3.96875zm0 0" fill="url(#e)"/><path d="m11.90625 42.050781h-3.96875v-1.984375h3.96875zm0 0" fill="url(#f)"/><path d="m34.730469 42.050781h3.96875v1.984375h-3.96875zm0 0" fill="url(#g)"/><path d="m27.8125 4.34375h-17.890625c-1.097656 0-1.984375.886719-1.984375 1.984375v33.738281c0 1.097656.886719 1.984375 1.984375 1.984375h26.792969c1.097656 0 1.984375-.886719 1.984375-1.984375v-24.835937zm0 0" fill="url(#h)"/><path d="m27.785156 13.523438h9.425782l1.488281 1.488281v1.984375h-10.914063zm0 0" fill="url(#i)"/><path d="m7.9375 39.296875v.769531c0 1.097656.886719 1.984375 1.984375 1.984375h26.792969c1.097656 0 1.984375-.886719 1.984375-1.984375v-.769531c0 1.097656-.886719 1.984375-1.984375 1.984375h-26.792969c-1.097656 0-1.984375-.886719-1.984375-1.984375zm0 0" fill-opacity=".235294"/><path d="m9.921875 4.34375c-1.097656 0-1.984375.886719-1.984375 1.984375v.746094c0-1.101563.886719-1.984375 1.984375-1.984375h17.890625l10.886719 10.882812v-.742187l-10.886719-10.886719zm0 0" fill="#fff" fill-opacity=".313725"/><path d="m38.699219 15.230469-10.886719-10.886719v8.902344c0 1.097656.886719 1.984375 1.984375 1.984375zm0 0" fill="url(#k)"/><path d="m27.8125 12.777344v.46875c0 1.097656.886719 1.984375 1.984375 1.984375h8.902344l-.46875-.46875h-8.433594c-1.097656 0-1.984375-.882813-1.984375-1.984375zm0 0" fill-opacity=".235294"/><path d="m27.8125 4.34375v.746094l10.140625 10.140625h.746094zm0 0" fill="#fff" fill-opacity=".392157"/><path d="m27.8125 4.203125c-.078125 0-.140625.0625-.140625.140625v8.902344c0 1.175781.949219 2.125 2.125 2.125h8.902344c.058593 0 .109375-.035156.128906-.085938.023437-.054687.011719-.113281-.03125-.15625l-10.882813-10.882812c-.027343-.027344-.066406-.042969-.101562-.042969zm.140625.480469 10.40625 10.40625h-8.5625c-1.023437 0-1.84375-.820313-1.84375-1.84375zm0 0" fill="#212121"/><path d="m9.921875 4.203125c-1.175781 0-2.125.949219-2.125 2.125v33.738281c0 1.175782.949219 2.125 2.125 2.125h26.792969c1.175781 0 2.125-.949218 2.125-2.125v-24.835937c0-.039063-.015625-.074219-.042969-.101563l-10.882813-10.882812c-.027343-.027344-.0625-.042969-.101562-.042969zm0 .28125h17.832031l10.804688 10.804687v24.777344c0 1.023438-.820313 1.84375-1.84375 1.84375h-26.792969c-1.023437 0-1.84375-.820312-1.84375-1.84375v-33.738281c0-1.023437.820313-1.84375 1.84375-1.84375zm0 0" fill="#212121"/><path d="m819.921712 695.051745c-11.02257 0-19.998091 8.975521-19.998091 19.99809v39.996181h-19.99809c-33.225174 0-59.994272 26.769098-59.994272 59.994272v20.155556h-39.996181c-11.02257 0-19.998091 8.818056-19.998091 19.99809 0 11.02257 8.975521 19.998091 19.998091 19.998091h39.996181v79.992362h-39.996181c-11.02257 0-19.998091 8.818056-19.998091 19.998091 0 11.022569 8.975521 19.99809 19.998091 19.99809h39.996181v79.992362h-39.996181c-11.02257 0-19.998091 8.818056-19.998091 19.998091 0 11.022569 8.975521 19.99809 19.998091 19.99809h39.996181v19.998091c0 33.225174 26.769098 59.994271 59.994272 59.994271h19.99809v39.996181c0 11.02257 8.975521 19.998091 19.998091 19.998091 11.180035 0 20.155556-8.975521 20.155556-19.998091v-39.996181h79.992362v39.996181c0 11.02257 8.818055 19.998091 19.99809 19.998091 11.02257 0 19.998091-8.975521 19.998091-19.998091v-39.996181h79.992362v39.996181c0 11.02257 8.818055 19.998091 19.99809 19.998091 11.02257 0 19.998091-8.975521 19.998091-19.998091v-39.996181h19.99809c33.225174 0 59.994272-26.769097 59.994272-59.994271v-19.998091h39.996181c11.02257 0 19.998091-8.975521 19.998091-19.99809 0-11.180035-8.975521-19.998091-19.998091-19.998091h-39.996181v-79.992362h39.996181c11.02257 0 19.998091-8.975521 19.998091-19.99809 0-11.180035-8.975521-19.998091-19.998091-19.998091h-39.996181v-79.992362h39.996181c11.02257 0 19.998091-8.975521 19.998091-19.998091 0-11.180034-8.975521-19.99809-19.998091-19.99809h-39.996181v-20.155556c0-33.225174-26.769098-59.994272-59.994272-59.994272h-19.99809v-39.996181c0-11.022569-8.975521-19.99809-19.998091-19.99809-11.180035 0-19.99809 8.975521-19.99809 19.99809v39.996181h-79.992362v-39.996181c0-11.022569-8.975521-19.99809-19.998091-19.99809-11.180035 0-19.99809 8.975521-19.99809 19.99809v39.996181h-79.992362v-39.996181c0-11.022569-8.975521-19.99809-20.155556-19.99809zm0 0" fill="url(#l)" stroke="#212121" stroke-linecap="round" stroke-linejoin="round" stroke-width="11.338583" transform="scale(.0248071)"/></svg>

<?xml version="1.0" encoding="UTF-8"?>
<svg xmlns="http://www.w3.org/2000/svg" xmlns:xlink="http://www.w3.org/1999/xlink" width="48pt" height="48pt" viewBox="0 0 48 48" version="1.1">
<defs>
<linearGradient id="linear0" gradientUnits="userSpaceOnUse" x1="254" y1="233.5" x2="254" y2="254.66667" gradientTransform="matrix(0.093759,0,0,0.093759,0.992281,20.158177)">
<stop offset="0" style="stop-color:rgb(0%,0%,0%);stop-opacity:0.27451;"/>
<stop offset="1" style="stop-color:rgb(0%,0%,0%);stop-opacity:0;"/>
</linearGradient>
<radialGradient id="radial0" gradientUnits="userSpaceOnUse" cx="450.90894" cy="189.57936" fx="450.90894" fy="189.57936" r="21.166656" gradientTransform="matrix(0.000000261256,-0.117199,-0.210958,-0.000000152308,74.226852,95.393002)">
<stop offset="0" style="stop-color:rgb(0%,0%,0%);stop-opacity:0.313725;"/>
<stop offset="0.222222" style="stop-color:rgb(0%,0%,0%);stop-opacity:0.27451;"/>
<stop offset="1" style="stop-color:rgb(0%,0%,0%);stop-opacity:0;"/>
</radialGradient>
<radialGradient id="radial1" gradientUnits="userSpaceOnUse" cx="450.90894" cy="189.57936" fx="450.90894" fy="189.57936" r="21.166656" gradientTransform="matrix(-0.000000261256,0.117199,0.210958,0.000000152308,-27.589578,-11.291218)">
<stop offset="0" style="stop-color:rgb(0%,0%,0%);stop-opacity:0.313725;"/>
<stop offset="0.222222" style="stop-color:rgb(0%,0%,0%);stop-opacity:0.27451;"/>
<stop offset="1" style="stop-color:rgb(0%,0%,0%);stop-opacity:0;"/>
</radialGradient>
<radialGradient id="radial2" gradientUnits="userSpaceOnUse" cx="450.90894" cy="189.57936" fx="450.90894" fy="189.57936" r="21.166656" gradientTransform="matrix(-0.000000261256,-0.117199,0.210958,-0.000000152308,-27.589578,95.393002)">
<stop offset="0" style="stop-color:rgb(0%,0%,0%);stop-opacity:0.313725;"/>
<stop offset="0.222222" style="stop-color:rgb(0%,0%,0%);stop-opacity:0.27451;"/>
<stop offset="1" style="stop-color:rgb(0%,0%,0%);stop-opacity:0;"/>
</radialGradient>
<radialGradient id="radial3" gradientUnits="userSpaceOnUse" cx="450.90894" cy="189.57936" fx="450.90894" fy="189.57936" r="21.166656" gradientTransform="matrix(0.000000261256,0.117199,-0.210958,0.000000152308,74.22685,-11.291219)">
<stop offset="0" style="stop-color:rgb(0%,0%,0%);stop-opacity:0.313725;"/>
<stop offset="0.222222" style="stop-color:rgb(0%,0%,0%);stop-opacity:0.27451;"/>
<stop offset="1" style="stop-color:rgb(0%,0%,0%);stop-opacity:0;"/>
</radialGradient>
<linearGradient id="linear1" gradientUnits="userSpaceOnUse" x1="940" y1="1695.1182" x2="940" y2="175.11812" gradientTransform="matrix(0.0248071,0,0,0.0248071,0,0)">
<stop offset="0" style="stop-color:rgb(64.705882%,83.921569%,65.490196%);stop-opacity:1;"/>
<stop offset="1" style="stop-color:rgb(78.431373%,90.196078%,78.823529%);stop-opacity:1;"/>
</linearGradient>
<linearGradient id="linear2" gradientUnits="userSpaceOnUse" x1="249.18942" y1="233.5" x2="249.18942" y2="254.66669" gradientTransform="matrix(0.0448412,0,0,0.164078,22.563634,-24.789434)">
<stop offset="0" style="stop-color:rgb(0%,0%,0%);stop-opacity:0.27451;"/>
<stop offset="1" style="stop-color:rgb(0%,0%,0%);stop-opacity:0;"/>
</linearGradient>
<linearGradient id="linear3" gradientUnits="userSpaceOnUse" x1="338.66666" y1="233.5" x2="338.66666" y2="-168.66667" gradientTransform="matrix(0.093759,0,0,0.093759,0,20.158175)">
<stop offset="0" style="stop-color:rgb(40%,73.333333%,41.568627%);stop-opacity:1;"/>
<stop offset="1" style="stop-color:rgb(50.588235%,78.039216%,51.764706%);stop-opacity:1;"/>
</linearGradient>
<linearGradient id="linear4" gradientUnits="userSpaceOnUse" x1="940" y1="1695.1182" x2="940" y2="175.11812" >
<stop offset="0" style="stop-color:rgb(40%,73.333333%,41.568627%);stop-opacity:1;"/>
<stop offset="1" style="stop-color:rgb(50.588235%,78.039216%,51.764706%);stop-opacity:1;"/>
</linearGradient>
</defs>
<g id="surface1">
<path style=" stroke:none;fill-rule:nonzero;fill:url(#linear0);" d="M 11.90625 42.050781 L 34.730469 42.050781 L 34.730469 44.035156 L 11.90625 44.035156 Z M 11.90625 42.050781 "/>
<path style=" stroke:none;fill-rule:nonzero;fill:url(#radial0);" d="M 34.730469 42.050781 L 38.699219 42.050781 L 38.699219 40.066406 L 34.730469 40.066406 Z M 34.730469 42.050781 "/>
<path style=" stroke:none;fill-rule:nonzero;fill:url(#radial1);" d="M 11.90625 42.050781 L 7.9375 42.050781 L 7.9375 44.035156 L 11.90625 44.035156 Z M 11.90625 42.050781 "/>
<path style=" stroke:none;fill-rule:nonzero;fill:url(#radial2);" d="M 11.90625 42.050781 L 7.9375 42.050781 L 7.9375 40.066406 L 11.90625 40.066406 Z M 11.90625 42.050781 "/>
<path style=" stroke:none;fill-rule:nonzero;fill:url(#radial3);" d="M 34.730469 42.050781 L 38.699219 42.050781 L 38.699219 44.035156 L 34.730469 44.035156 Z M 34.730469 42.050781 "/>
<path style=" stroke:none;fill-rule:nonzero;fill:url(#linear1);" d="M 27.8125 4.34375 L 9.921875 4.34375 C 8.824219 4.34375 7.9375 5.230469 7.9375 6.328125 L 7.9375 40.066406 C 7.9375 41.164062 8.824219 42.050781 9.921875 42.050781 L 36.714844 42.050781 C 37.8125 42.050781 38.699219 41.164062 38.699219 40.066406 L 38.699219 15.230469 Z M 27.8125 4.34375 "/>
<path style=" stroke:none;fill-rule:nonzero;fill:url(#linear2);" d="M 27.785156 13.523438 L 37.210938 13.523438 L 38.699219 15.011719 L 38.699219 16.996094 L 27.785156 16.996094 Z M 27.785156 13.523438 "/>
<path style=" stroke:none;fill-rule:nonzero;fill:rgb(0%,0%,0%);fill-opacity:0.235294;" d="M 7.9375 39.296875 L 7.9375 40.066406 C 7.9375 41.164062 8.824219 42.050781 9.921875 42.050781 L 36.714844 42.050781 C 37.8125 42.050781 38.699219 41.164062 38.699219 40.066406 L 38.699219 39.296875 C 38.699219 40.394531 37.8125 41.28125 36.714844 41.28125 L 9.921875 41.28125 C 8.824219 41.28125 7.9375 40.394531 7.9375 39.296875 Z M 7.9375 39.296875 "/>
<path style=" stroke:none;fill-rule:nonzero;fill:rgb(100%,100%,100%);fill-opacity:0.313725;" d="M 9.921875 4.34375 C 8.824219 4.34375 7.9375 5.230469 7.9375 6.328125 L 7.9375 7.074219 C 7.9375 5.972656 8.824219 5.089844 9.921875 5.089844 L 27.8125 5.089844 L 38.699219 15.972656 L 38.699219 15.230469 L 27.8125 4.34375 Z M 9.921875 4.34375 "/>
<path style=" stroke:none;fill-rule:nonzero;fill:url(#linear3);" d="M 38.699219 15.230469 L 27.8125 4.34375 L 27.8125 13.246094 C 27.8125 14.34375 28.699219 15.230469 29.796875 15.230469 Z M 38.699219 15.230469 "/>
<path style=" stroke:none;fill-rule:nonzero;fill:rgb(0%,0%,0%);fill-opacity:0.235294;" d="M 27.8125 12.777344 L 27.8125 13.246094 C 27.8125 14.34375 28.699219 15.230469 29.796875 15.230469 L 38.699219 15.230469 L 38.230469 14.761719 L 29.796875 14.761719 C 28.699219 14.761719 27.8125 13.878906 27.8125 12.777344 Z M 27.8125 12.777344 "/>
<path style=" stroke:none;fill-rule:nonzero;fill:rgb(100%,100%,100%);fill-opacity:0.392157;" d="M 27.8125 4.34375 L 27.8125 5.089844 L 37.953125 15.230469 L 38.699219 15.230469 Z M 27.8125 4.34375 "/>
<path style=" stroke:none;fill-rule:nonzero;fill:rgb(12.941176%,12.941176%,12.941176%);fill-opacity:1;" d="M 27.8125 4.203125 C 27.734375 4.203125 27.671875 4.265625 27.671875 4.34375 L 27.671875 13.246094 C 27.671875 14.421875 28.621094 15.371094 29.796875 15.371094 L 38.699219 15.371094 C 38.757812 15.371094 38.808594 15.335938 38.828125 15.285156 C 38.851562 15.230469 38.839844 15.171875 38.796875 15.128906 L 27.914062 4.246094 C 27.886719 4.21875 27.847656 4.203125 27.8125 4.203125 Z M 27.953125 4.683594 L 38.359375 15.089844 L 29.796875 15.089844 C 28.773438 15.089844 27.953125 14.269531 27.953125 13.246094 Z M 27.953125 4.683594 "/>
<path style=" stroke:none;fill-rule:nonzero;fill:rgb(12.941176%,12.941176%,12.941176%);fill-opacity:1;" d="M 9.921875 4.203125 C 8.746094 4.203125 7.796875 5.152344 7.796875 6.328125 L 7.796875 40.066406 C 7.796875 41.242188 8.746094 42.191406 9.921875 42.191406 L 36.714844 42.191406 C 37.890625 42.191406 38.839844 41.242188 38.839844 40.066406 L 38.839844 15.230469 C 38.839844 15.191406 38.824219 15.15625 38.796875 15.128906 L 27.914062 4.246094 C 27.886719 4.21875 27.851562 4.203125 27.8125 4.203125 Z M 9.921875 4.484375 L 27.753906 4.484375 L 38.558594 15.289062 L 38.558594 40.066406 C 38.558594 41.089844 37.738281 41.910156 36.714844 41.910156 L 9.921875 41.910156 C 8.898438 41.910156 8.078125 41.089844 8.078125 40.066406 L 8.078125 6.328125 C 8.078125 5.304688 8.898438 4.484375 9.921875 4.484375 Z M 9.921875 4.484375 "/>
<path style="fill-rule:nonzero;fill:url(#linear4);stroke-width:11.338583;stroke-linecap:round;stroke-linejoin:round;stroke:rgb(12.941176%,12.941176%,12.941176%);stroke-opacity:1;stroke-miterlimit:4;" d="M 819.921712 695.051745 C 808.899142 695.051745 799.923621 704.027266 799.923621 715.049835 L 799.923621 755.046016 L 779.925531 755.046016 C 746.700357 755.046016 719.931259 781.815114 719.931259 815.040288 L 719.931259 835.195844 L 679.935078 835.195844 C 668.912508 835.195844 659.936987 844.0139 659.936987 855.193934 C 659.936987 866.216504 668.912508 875.192025 679.935078 875.192025 L 719.931259 875.192025 L 719.931259 955.184387 L 679.935078 955.184387 C 668.912508 955.184387 659.936987 964.002443 659.936987 975.182478 C 659.936987 986.205047 668.912508 995.180568 679.935078 995.180568 L 719.931259 995.180568 L 719.931259 1075.17293 L 679.935078 1075.17293 C 668.912508 1075.17293 659.936987 1083.990986 659.936987 1095.171021 C 659.936987 1106.19359 668.912508 1115.169111 679.935078 1115.169111 L 719.931259 1115.169111 L 719.931259 1135.167202 C 719.931259 1168.392376 746.700357 1195.161473 779.925531 1195.161473 L 799.923621 1195.161473 L 799.923621 1235.157654 C 799.923621 1246.180224 808.899142 1255.155745 819.921712 1255.155745 C 831.101747 1255.155745 840.077268 1246.180224 840.077268 1235.157654 L 840.077268 1195.161473 L 920.06963 1195.161473 L 920.06963 1235.157654 C 920.06963 1246.180224 928.887685 1255.155745 940.06772 1255.155745 C 951.09029 1255.155745 960.065811 1246.180224 960.065811 1235.157654 L 960.065811 1195.161473 L 1040.058173 1195.161473 L 1040.058173 1235.157654 C 1040.058173 1246.180224 1048.876228 1255.155745 1060.056263 1255.155745 C 1071.078833 1255.155745 1080.054354 1246.180224 1080.054354 1235.157654 L 1080.054354 1195.161473 L 1100.052444 1195.161473 C 1133.277618 1195.161473 1160.046716 1168.392376 1160.046716 1135.167202 L 1160.046716 1115.169111 L 1200.042897 1115.169111 C 1211.065467 1115.169111 1220.040988 1106.19359 1220.040988 1095.171021 C 1220.040988 1083.990986 1211.065467 1075.17293 1200.042897 1075.17293 L 1160.046716 1075.17293 L 1160.046716 995.180568 L 1200.042897 995.180568 C 1211.065467 995.180568 1220.040988 986.205047 1220.040988 975.182478 C 1220.040988 964.002443 1211.065467 955.184387 1200.042897 955.184387 L 1160.046716 955.184387 L 1160.046716 875.192025 L 1200.042897 875.192025 C 1211.065467 875.192025 1220.040988 866.216504 1220.040988 855.193934 C 1220.040988 844.0139 1211.065467 835.195844 1200.042897 835.195844 L 1160.046716 835.195844 L 1160.046716 815.040288 C 1160.046716 781.815114 1133.277618 755.046016 1100.052444 755.046016 L 1080.054354 755.046016 L 1080.054354 715.049835 C 1080.054354 704.027266 1071.078833 695.051745 1060.056263 695.051745 C 1048.876228 695.051745 1040.058173 704.027266 1040.058173 715.049835 L 1040.058173 755.046016 L 960.065811 755.046016 L 960.065811 715.049835 C 960.065811 704.027266 951.09029 695.051745 940.06772 695.051745 C 928.887685 695.051745 920.06963 704.027266 920.06963 715.049835 L 920.06963 755.046016 L 840.077268 755.046016 L 840.077268 715.049835 C 840.077268 704.027266 831.101747 695.051745 819.921712 695.051745 Z M 819.921712 695.051745 " transform="matrix(0.0248071,0,0,0.0248071,0,0)"/>
</g>
</svg>
